assets/Q_spades.svg

<svg width="822" height="1134" fill="none" xmlns="http://www.w3.org/2000/svg"><rect y="12" width="822" height="1122" rx="50" fill="#F1F7EE"/><path d="m246.151 1100.1-2.4.1c-9.266 0-16.433-2.9-21.5-8.7-5-5.87-7.5-14.43-7.5-25.7 0-5.4.667-10.23 2-14.5 1.4-4.33 3.134-7.83 5.2-10.5a28.198 28.198 0 0 1 7.5-6.6c5.067-3.2 10.534-4.8 16.4-4.8 2.467 0 4.834.2 7.1.6 2.267.4 4.834 1.3 7.7 2.7 2.867 1.4 5.3 3.27 7.3 5.6 2.067 2.27 3.8 5.53 5.2 9.8 1.467 4.27 2.2 9.23 2.2 14.9 0 8.4-1.5 15.43-4.5 21.1-3 5.6-7.1 9.8-12.3 12.6 1.267 4.6 4.3 8.97 9.1 13.1.734.6.8 1.3.2 2.1l-2.3 2.8c-.333.4-.7.6-1.1.6-.333 0-.7-.1-1.1-.3-8.8-4.53-14.533-9.5-17.2-14.9Zm-1.2-9.3c11.934 0 17.9-8.77 17.9-26.3s-6.066-26.3-18.2-26.3c-4.266 0-7.8 1.17-10.6 3.5-2.733 2.33-4.633 5.23-5.7 8.7-1.066 3.4-1.6 7.37-1.6 11.9 0 19 6.067 28.5 18.2 28.5Zm85.738.3h4.4c1 0 1.5.5 1.5 1.5v4.9c0 1-.5 1.5-1.5 1.5h-11.2c-.8 0-1.3-.5-1.5-1.5l-.9-5.6c-4.266 5.53-9.866 8.3-16.8 8.3-10.8 0-16.2-5.67-16.2-17v-25.5h-5.3c-1 0-1.5-.5-1.5-1.5v-5.2c0-1 .5-1.5 1.5-1.5h15c1 0 1.5.5 1.5 1.5v29.2c0 4 .5 6.87 1.5 8.6 1.067 1.67 3.267 2.5 6.6 2.5 3.4 0 6.2-1 8.4-3s3.3-4.27 3.3-6.8v-23.8h-6.3c-1 0-1.5-.5-1.5-1.5v-5.2c0-1 .5-1.5 1.5-1.5h16c1 0 1.5.5 1.5 1.5v40.1Zm35.364 9.1c-7.934 0-13.767-2.3-17.5-6.9-3.667-4.67-5.5-10.8-5.5-18.4 0-7.67 1.966-14 5.9-19 3.933-5 9.6-7.5 17-7.5 3.666 0 6.8.7 9.4 2.1 2.666 1.33 4.7 3.17 6.1 5.5 2.666 4.53 4 9.77 4 15.7 0 2.8-.134 4.33-.4 4.6-.267.27-.767.4-1.5.4h-29.4c.333 4.8 1.5 8.53 3.5 11.2 2.066 2.6 5.6 3.9 10.6 3.9 3.666 0 7.433-.87 11.3-2.6.933-.47 1.6-.2 2 .8l1.9 4.6c.333.8.033 1.47-.9 2-4.4 2.4-9.9 3.6-16.5 3.6Zm-11.9-30.9h20.8c.133-8.33-3.134-12.5-9.8-12.5-3.934 0-6.734 1.27-8.4 3.8-1.6 2.47-2.467 5.37-2.6 8.7Zm38.949-5.5c0-4.4 1.7-8.07 5.1-11 3.4-2.93 7.7-4.4 12.9-4.4s9.7.6 13.5 1.8c.933.27 1.4.87 1.4 1.8v10.6c0 1-.5 1.5-1.5 1.5h-5.8c-1.067 0-1.5-.5-1.3-1.5l.5-5.1c-2-1.07-4.2-1.6-6.6-1.6-5.333 0-8 1.87-8 5.6 0 1.93.867 3.47 2.6 4.6 1.733 1.13 3.833 2.07 6.3 2.8a81.61 81.61 0 0 1 7.4 2.4c2.533.87 4.667 2.4 6.4 4.6 1.733 2.13 2.6 4.87 2.6 8.2 0 5.07-1.767 9.03-5.3 11.9-3.533 2.8-8.5 4.2-14.9 4.2-4.467 0-9.167-.67-14.1-2-.867-.27-1.3-.9-1.3-1.9v-10.6c0-1 .5-1.5 1.5-1.5h5.8c1 0 1.467.5 1.4 1.5l-.3 5.2c1.8 1.33 4.367 2 7.7 2 5.933 0 8.9-2.1 8.9-6.3 0-2.13-.867-3.8-2.6-5-1.667-1.27-3.733-2.23-6.2-2.9a184.3 184.3 0 0 1-7.3-2.2c-2.467-.87-4.567-2.33-6.3-4.4-1.667-2.13-2.5-4.9-2.5-8.3Zm57.464-6.1v25.2c0 3.13.4 5.4 1.2 6.8.8 1.4 2.3 2.1 4.5 2.1s4.333-.47 6.4-1.4c.733-.27 1.267 0 1.6.8l1.8 4.6c.067.2.1.5.1.9 0 .33-.333.7-1 1.1-3.2 1.6-7 2.4-11.4 2.4-5.933 0-9.833-1.53-11.7-4.6-1.333-2-2.1-3.93-2.3-5.8-.267-2.53-.4-5.2-.4-8v-24.1h-5.7c-1 0-1.5-.5-1.5-1.5v-5.2c0-1 .5-1.5 1.5-1.5h5.7V1036c0-1 .5-1.5 1.5-1.5h8.2c1 0 1.5.5 1.5 1.5v13.5h10.1c1 0 1.5.5 1.5 1.5v5.2c0 1-.5 1.5-1.5 1.5h-10.1Zm37.614 33.4h6.3c1 0 1.5.5 1.5 1.5v4.9c0 1-.5 1.5-1.5 1.5h-23.8c-1 0-1.5-.5-1.5-1.5v-4.9c0-1 .5-1.5 1.5-1.5h6.3v-33.4h-5.4c-1 0-1.5-.5-1.5-1.5v-5.2c0-1 .5-1.5 1.5-1.5h15.1c1 0 1.5.5 1.5 1.5v40.1Zm-12.1-50.5c-1.267-1.33-1.9-3.03-1.9-5.1s.633-3.77 1.9-5.1c1.333-1.4 3.067-2.1 5.2-2.1 2.2 0 3.933.7 5.2 2.1 1.333 1.33 2 3.03 2 5.1s-.667 3.77-2 5.1c-1.333 1.33-3.1 2-5.3 2-2.133 0-3.833-.67-5.1-2Zm24.395 34.4c0-5 .766-9.33 2.3-13 1.533-3.67 3.533-6.43 6-8.3 4.733-3.53 9.866-5.3 15.4-5.3 4.066 0 7.5.63 10.3 1.9 2.8 1.27 4.966 2.73 6.5 4.4 1.6 1.67 2.933 4.07 4 7.2 1.133 3.13 1.7 6.8 1.7 11 0 8.93-2.267 15.73-6.8 20.4-4.467 4.6-10.2 6.9-17.2 6.9s-12.467-2.1-16.4-6.3c-3.867-4.27-5.8-10.57-5.8-18.9Zm23 17c4 0 6.9-1.47 8.7-4.4 1.866-3 2.8-7.43 2.8-13.3 0-5.87-.934-10.27-2.8-13.2-1.8-3-4.767-4.5-8.9-4.5-7.667 0-11.5 5.4-11.5 16.2 0 12.8 3.9 19.2 11.7 19.2Zm29.222-35.7v-5.3c0-1 .5-1.5 1.5-1.5h13.6c.867 0 1.4.5 1.6 1.5l.9 5.8c3.734-5.6 9.067-8.4 16-8.4 10.334 0 15.5 5.67 15.5 17v25.7h5.8c1 0 1.5.5 1.5 1.5v4.9c0 1-.5 1.5-1.5 1.5h-21.8c-1 0-1.5-.5-1.5-1.5v-4.9c0-1 .5-1.5 1.5-1.5h4.8v-20.7c0-4.2-.533-7.27-1.6-9.2-1.066-1.93-3.266-2.9-6.6-2.9-3.333 0-6.1 1-8.3 3-2.2 2-3.3 4.27-3.3 6.8v23h6.2c1 0 1.5.5 1.5 1.5v4.9c0 1-.5 1.5-1.5 1.5h-22.7c-1 0-1.5-.5-1.5-1.5v-4.9c0-1 .5-1.5 1.5-1.5h5.3v-33.4h-5.4c-1 0-1.5-.47-1.5-1.4ZM133.243 300.3l-7.2.3c-27.8 0-49.3-8.7-64.5-26.1-15-17.6-22.5-43.3-22.5-77.1 0-16.2 2-30.7 6-43.5 4.2-13 9.4-23.5 15.6-31.5 6.4-8 13.9-14.6 22.5-19.8 15.2-9.6 31.6-14.4 49.2-14.4 7.4 0 14.5.6 21.3 1.8 6.8 1.2 14.5 3.9 23.1 8.1 8.6 4.2 15.9 9.8 21.9 16.8 6.2 6.8 11.4 16.6 15.6 29.4 4.4 12.8 6.6 27.7 6.6 44.7 0 25.2-4.5 46.3-13.5 63.3-9 16.8-21.3 29.4-36.9 37.8 3.8 13.8 12.9 26.9 27.3 39.3 2.2 1.8 2.4 3.9.6 6.3l-6.9 8.4c-1 1.2-2.1 1.8-3.3 1.8-1 0-2.1-.3-3.3-.9-26.4-13.6-43.6-28.5-51.6-44.7Zm-3.6-27.9c35.8 0 53.7-26.3 53.7-78.9 0-52.6-18.2-78.9-54.6-78.9-12.8 0-23.4 3.5-31.8 10.5-8.2 7-13.9 15.7-17.1 26.1-3.2 10.2-4.8 22.1-4.8 35.7 0 57 18.2 85.5 54.6 85.5ZM418.8 718.4l-9.6.4c-37.067 0-65.733-11.6-86-34.8-20-23.467-30-57.733-30-102.8 0-21.6 2.667-40.933 8-58 5.6-17.333 12.533-31.333 20.8-42 8.533-10.667 18.533-19.467 30-26.4 20.267-12.8 42.133-19.2 65.6-19.2 9.867 0 19.333.8 28.4 2.4 9.067 1.6 19.333 5.2 30.8 10.8 11.467 5.6 21.2 13.067 29.2 22.4 8.267 9.067 15.2 22.133 20.8 39.2 5.867 17.067 8.8 36.933 8.8 59.6 0 33.6-6 61.733-18 84.4-12 22.4-28.4 39.2-49.2 50.4 5.067 18.4 17.2 35.867 36.4 52.4 2.933 2.4 3.2 5.2.8 8.4l-9.2 11.2c-1.333 1.6-2.8 2.4-4.4 2.4-1.333 0-2.8-.4-4.4-1.2-35.2-18.133-58.133-38-68.8-59.6Zm-4.8-37.2c47.733 0 71.6-35.067 71.6-105.2 0-70.133-24.267-105.2-72.8-105.2-17.067 0-31.2 4.667-42.4 14-10.933 9.333-18.533 20.933-22.8 34.8-4.267 13.6-6.4 29.467-6.4 47.6 0 76 24.267 114 72.8 114Z" fill="#000"/><path d="m344.492 373.908 28.663 51.219c30.873-9.103 50.551-7.778 87.639 0l28.662-51.218-38.218 27.926L439.377 351l-22.403 46.745L394.571 351l-11.861 50.834-38.218-27.926Z" fill="#F7081D"/><path d="M92.711 407.294a26.324 26.324 0 0 0 8.538 5.692 26.38 26.38 0 0 0 20.144 0 26.32 26.32 0 0 0 8.537-5.692l5.071-5.057 5.071 5.057a26.353 26.353 0 0 0 18.61 7.688c6.98 0 13.674-2.765 18.61-7.688A26.212 26.212 0 0 0 185 388.735a26.212 26.212 0 0 0-7.708-18.559l-5.071-5.057-33.689-33.598a5 5 0 0 0-7.061 0l-33.689 33.598-5.071 5.057a26.24 26.24 0 0 0-5.707 8.514 26.182 26.182 0 0 0 5.707 28.604ZM133.592 416.382l-15.303 15.183c-1.268 1.257-.377 3.419 1.408 3.419h30.607c1.785 0 2.676-2.162 1.408-3.419l-15.303-15.183a1.999 1.999 0 0 0-2.817 0Z" fill="#231F20"/><mask id="a" style="mask-type:alpha" maskUnits="userSpaceOnUse" x="85" y="329" width="50" height="106"><path fill="#D9D9D9" d="M85 329.955h50v105.028H85z"/></mask><g mask="url(#a)" fill="#393335"><path d="m133.592 416.382-15.303 15.183c-1.268 1.257-.377 3.419 1.408 3.419h30.607c1.785 0 2.676-2.162 1.408-3.419l-15.303-15.183a1.999 1.999 0 0 0-2.817 0ZM92.711 407.294a26.324 26.324 0 0 0 8.538 5.692 26.38 26.38 0 0 0 20.144 0 26.32 26.32 0 0 0 8.537-5.692l5.071-5.057 5.071 5.057a26.353 26.353 0 0 0 18.61 7.688c6.98 0 13.674-2.765 18.61-7.688A26.212 26.212 0 0 0 185 388.735a26.212 26.212 0 0 0-7.708-18.559l-5.071-5.057-33.689-33.598a5 5 0 0 0-7.061 0l-33.689 33.598-5.071 5.057a26.24 26.24 0 0 0-5.707 8.514 26.182 26.182 0 0 0 5.707 28.604Z"/></g></svg>

<svg width="822" height="1134" viewBox="0 0 822 1134" fill="none" xmlns="http://www.w3.org/2000/svg">
<rect y="12" width="822" height="1122" rx="50" fill="#F1F7EE"/>
<path d="M246.151 1100.1L243.751 1100.2C234.485 1100.2 227.318 1097.3 222.251 1091.5C217.251 1085.63 214.751 1077.07 214.751 1065.8C214.751 1060.4 215.418 1055.57 216.751 1051.3C218.151 1046.97 219.885 1043.47 221.951 1040.8C224.085 1038.13 226.585 1035.93 229.451 1034.2C234.518 1031 239.985 1029.4 245.851 1029.4C248.318 1029.4 250.685 1029.6 252.951 1030C255.218 1030.4 257.785 1031.3 260.651 1032.7C263.518 1034.1 265.951 1035.97 267.951 1038.3C270.018 1040.57 271.751 1043.83 273.151 1048.1C274.618 1052.37 275.351 1057.33 275.351 1063C275.351 1071.4 273.851 1078.43 270.851 1084.1C267.851 1089.7 263.751 1093.9 258.551 1096.7C259.818 1101.3 262.851 1105.67 267.651 1109.8C268.385 1110.4 268.451 1111.1 267.851 1111.9L265.551 1114.7C265.218 1115.1 264.851 1115.3 264.451 1115.3C264.118 1115.3 263.751 1115.2 263.351 1115C254.551 1110.47 248.818 1105.5 246.151 1100.1ZM244.951 1090.8C256.885 1090.8 262.851 1082.03 262.851 1064.5C262.851 1046.97 256.785 1038.2 244.651 1038.2C240.385 1038.2 236.851 1039.37 234.051 1041.7C231.318 1044.03 229.418 1046.93 228.351 1050.4C227.285 1053.8 226.751 1057.77 226.751 1062.3C226.751 1081.3 232.818 1090.8 244.951 1090.8ZM330.689 1091.1H335.089C336.089 1091.1 336.589 1091.6 336.589 1092.6V1097.5C336.589 1098.5 336.089 1099 335.089 1099H323.889C323.089 1099 322.589 1098.5 322.389 1097.5L321.489 1091.9C317.223 1097.43 311.623 1100.2 304.689 1100.2C293.889 1100.2 288.489 1094.53 288.489 1083.2V1057.7H283.189C282.189 1057.7 281.689 1057.2 281.689 1056.2V1051C281.689 1050 282.189 1049.5 283.189 1049.5H298.189C299.189 1049.5 299.689 1050 299.689 1051V1080.2C299.689 1084.2 300.189 1087.07 301.189 1088.8C302.256 1090.47 304.456 1091.3 307.789 1091.3C311.189 1091.3 313.989 1090.3 316.189 1088.3C318.389 1086.3 319.489 1084.03 319.489 1081.5V1057.7H313.189C312.189 1057.7 311.689 1057.2 311.689 1056.2V1051C311.689 1050 312.189 1049.5 313.189 1049.5H329.189C330.189 1049.5 330.689 1050 330.689 1051V1091.1ZM366.053 1100.2C358.119 1100.2 352.286 1097.9 348.553 1093.3C344.886 1088.63 343.053 1082.5 343.053 1074.9C343.053 1067.23 345.019 1060.9 348.953 1055.9C352.886 1050.9 358.553 1048.4 365.953 1048.4C369.619 1048.4 372.753 1049.1 375.353 1050.5C378.019 1051.83 380.053 1053.67 381.453 1056C384.119 1060.53 385.453 1065.77 385.453 1071.7C385.453 1074.5 385.319 1076.03 385.053 1076.3C384.786 1076.57 384.286 1076.7 383.553 1076.7H354.153C354.486 1081.5 355.653 1085.23 357.653 1087.9C359.719 1090.5 363.253 1091.8 368.253 1091.8C371.919 1091.8 375.686 1090.93 379.553 1089.2C380.486 1088.73 381.153 1089 381.553 1090L383.453 1094.6C383.786 1095.4 383.486 1096.07 382.553 1096.6C378.153 1099 372.653 1100.2 366.053 1100.2ZM354.153 1069.3H374.953C375.086 1060.97 371.819 1056.8 365.153 1056.8C361.219 1056.8 358.419 1058.07 356.753 1060.6C355.153 1063.07 354.286 1065.97 354.153 1069.3ZM393.102 1063.8C393.102 1059.4 394.802 1055.73 398.202 1052.8C401.602 1049.87 405.902 1048.4 411.102 1048.4C416.302 1048.4 420.802 1049 424.602 1050.2C425.535 1050.47 426.002 1051.07 426.002 1052V1062.6C426.002 1063.6 425.502 1064.1 424.502 1064.1H418.702C417.635 1064.1 417.202 1063.6 417.402 1062.6L417.902 1057.5C415.902 1056.43 413.702 1055.9 411.302 1055.9C405.969 1055.9 403.302 1057.77 403.302 1061.5C403.302 1063.43 404.169 1064.97 405.902 1066.1C407.635 1067.23 409.735 1068.17 412.202 1068.9C414.669 1069.57 417.135 1070.37 419.602 1071.3C422.135 1072.17 424.269 1073.7 426.002 1075.9C427.735 1078.03 428.602 1080.77 428.602 1084.1C428.602 1089.17 426.835 1093.13 423.302 1096C419.769 1098.8 414.802 1100.2 408.402 1100.2C403.935 1100.2 399.235 1099.53 394.302 1098.2C393.435 1097.93 393.002 1097.3 393.002 1096.3V1085.7C393.002 1084.7 393.502 1084.2 394.502 1084.2H400.302C401.302 1084.2 401.769 1084.7 401.702 1085.7L401.402 1090.9C403.202 1092.23 405.769 1092.9 409.102 1092.9C415.035 1092.9 418.002 1090.8 418.002 1086.6C418.002 1084.47 417.135 1082.8 415.402 1081.6C413.735 1080.33 411.669 1079.37 409.202 1078.7C406.802 1078.03 404.369 1077.3 401.902 1076.5C399.435 1075.63 397.335 1074.17 395.602 1072.1C393.935 1069.97 393.102 1067.2 393.102 1063.8ZM450.566 1057.7V1082.9C450.566 1086.03 450.966 1088.3 451.766 1089.7C452.566 1091.1 454.066 1091.8 456.266 1091.8C458.466 1091.8 460.599 1091.33 462.666 1090.4C463.399 1090.13 463.933 1090.4 464.266 1091.2L466.066 1095.8C466.133 1096 466.166 1096.3 466.166 1096.7C466.166 1097.03 465.833 1097.4 465.166 1097.8C461.966 1099.4 458.166 1100.2 453.766 1100.2C447.833 1100.2 443.933 1098.67 442.066 1095.6C440.733 1093.6 439.966 1091.67 439.766 1089.8C439.499 1087.27 439.366 1084.6 439.366 1081.8V1057.7H433.666C432.666 1057.7 432.166 1057.2 432.166 1056.2V1051C432.166 1050 432.666 1049.5 433.666 1049.5H439.366V1036C439.366 1035 439.866 1034.5 440.866 1034.5H449.066C450.066 1034.5 450.566 1035 450.566 1036V1049.5H460.666C461.666 1049.5 462.166 1050 462.166 1051V1056.2C462.166 1057.2 461.666 1057.7 460.666 1057.7H450.566ZM488.18 1091.1H494.48C495.48 1091.1 495.98 1091.6 495.98 1092.6V1097.5C495.98 1098.5 495.48 1099 494.48 1099H470.68C469.68 1099 469.18 1098.5 469.18 1097.5V1092.6C469.18 1091.6 469.68 1091.1 470.68 1091.1C470.68 1091.1 472.78 1091.1 476.98 1091.1V1057.7H471.58C470.58 1057.7 470.08 1057.2 470.08 1056.2V1051C470.08 1050 470.58 1049.5 471.58 1049.5H486.68C487.68 1049.5 488.18 1050 488.18 1051V1091.1ZM476.08 1040.6C474.813 1039.27 474.18 1037.57 474.18 1035.5C474.18 1033.43 474.813 1031.73 476.08 1030.4C477.413 1029 479.147 1028.3 481.28 1028.3C483.48 1028.3 485.213 1029 486.48 1030.4C487.813 1031.73 488.48 1033.43 488.48 1035.5C488.48 1037.57 487.813 1039.27 486.48 1040.6C485.147 1041.93 483.38 1042.6 481.18 1042.6C479.047 1042.6 477.347 1041.93 476.08 1040.6ZM500.475 1075C500.475 1070 501.241 1065.67 502.775 1062C504.308 1058.33 506.308 1055.57 508.775 1053.7C513.508 1050.17 518.641 1048.4 524.175 1048.4C528.241 1048.4 531.675 1049.03 534.475 1050.3C537.275 1051.57 539.441 1053.03 540.975 1054.7C542.575 1056.37 543.908 1058.77 544.975 1061.9C546.108 1065.03 546.675 1068.7 546.675 1072.9C546.675 1081.83 544.408 1088.63 539.875 1093.3C535.408 1097.9 529.675 1100.2 522.675 1100.2C515.675 1100.2 510.208 1098.1 506.275 1093.9C502.408 1089.63 500.475 1083.33 500.475 1075ZM523.475 1092C527.475 1092 530.375 1090.53 532.175 1087.6C534.041 1084.6 534.975 1080.17 534.975 1074.3C534.975 1068.43 534.041 1064.03 532.175 1061.1C530.375 1058.1 527.408 1056.6 523.275 1056.6C515.608 1056.6 511.775 1062 511.775 1072.8C511.775 1085.6 515.675 1092 523.475 1092ZM552.697 1056.3V1051C552.697 1050 553.197 1049.5 554.197 1049.5H567.797C568.664 1049.5 569.197 1050 569.397 1051L570.297 1056.8C574.031 1051.2 579.364 1048.4 586.297 1048.4C596.631 1048.4 601.797 1054.07 601.797 1065.4V1091.1H607.597C608.597 1091.1 609.097 1091.6 609.097 1092.6V1097.5C609.097 1098.5 608.597 1099 607.597 1099H585.797C584.797 1099 584.297 1098.5 584.297 1097.5V1092.6C584.297 1091.6 584.797 1091.1 585.797 1091.1H590.597V1070.4C590.597 1066.2 590.064 1063.13 588.997 1061.2C587.931 1059.27 585.731 1058.3 582.397 1058.3C579.064 1058.3 576.297 1059.3 574.097 1061.3C571.897 1063.3 570.797 1065.57 570.797 1068.1V1091.1H576.997C577.997 1091.1 578.497 1091.6 578.497 1092.6V1097.5C578.497 1098.5 577.997 1099 576.997 1099H554.297C553.297 1099 552.797 1098.5 552.797 1097.5V1092.6C552.797 1091.6 553.297 1091.1 554.297 1091.1H559.597V1057.7H554.197C553.197 1057.7 552.697 1057.23 552.697 1056.3Z" fill="black"/>
<path d="M133.243 300.3L126.043 300.6C98.2426 300.6 76.7426 291.9 61.5426 274.5C46.5426 256.9 39.0426 231.2 39.0426 197.4C39.0426 181.2 41.0426 166.7 45.0426 153.9C49.2426 140.9 54.4426 130.4 60.6426 122.4C67.0426 114.4 74.5426 107.8 83.1426 102.6C98.3426 93 114.743 88.2 132.343 88.2C139.743 88.2 146.843 88.8 153.643 90C160.443 91.2 168.143 93.9 176.743 98.1C185.343 102.3 192.643 107.9 198.643 114.9C204.843 121.7 210.043 131.5 214.243 144.3C218.643 157.1 220.843 172 220.843 189C220.843 214.2 216.343 235.3 207.343 252.3C198.343 269.1 186.043 281.7 170.443 290.1C174.243 303.9 183.343 317 197.743 329.4C199.943 331.2 200.143 333.3 198.343 335.7L191.443 344.1C190.443 345.3 189.343 345.9 188.143 345.9C187.143 345.9 186.043 345.6 184.843 345C158.443 331.4 141.243 316.5 133.243 300.3ZM129.643 272.4C165.443 272.4 183.343 246.1 183.343 193.5C183.343 140.9 165.143 114.6 128.743 114.6C115.943 114.6 105.343 118.1 96.9426 125.1C88.7426 132.1 83.0426 140.8 79.8426 151.2C76.6426 161.4 75.0426 173.3 75.0426 186.9C75.0426 243.9 93.2426 272.4 129.643 272.4Z" fill="black"/>
<path d="M418.8 718.4L409.2 718.8C372.133 718.8 343.467 707.2 323.2 684C303.2 660.533 293.2 626.267 293.2 581.2C293.2 559.6 295.867 540.267 301.2 523.2C306.8 505.867 313.733 491.867 322 481.2C330.533 470.533 340.533 461.733 352 454.8C372.267 442 394.133 435.6 417.6 435.6C427.467 435.6 436.933 436.4 446 438C455.067 439.6 465.333 443.2 476.8 448.8C488.267 454.4 498 461.867 506 471.2C514.267 480.267 521.2 493.333 526.8 510.4C532.667 527.467 535.6 547.333 535.6 570C535.6 603.6 529.6 631.733 517.6 654.4C505.6 676.8 489.2 693.6 468.4 704.8C473.467 723.2 485.6 740.667 504.8 757.2C507.733 759.6 508 762.4 505.6 765.6L496.4 776.8C495.067 778.4 493.6 779.2 492 779.2C490.667 779.2 489.2 778.8 487.6 778C452.4 759.867 429.467 740 418.8 718.4ZM414 681.2C461.733 681.2 485.6 646.133 485.6 576C485.6 505.867 461.333 470.8 412.8 470.8C395.733 470.8 381.6 475.467 370.4 484.8C359.467 494.133 351.867 505.733 347.6 519.6C343.333 533.2 341.2 549.067 341.2 567.2C341.2 643.2 365.467 681.2 414 681.2Z" fill="black"/>
<path d="M344.492 373.908L373.155 425.127C404.028 416.024 423.706 417.349 460.794 425.127L489.456 373.909L451.238 401.835L439.377 351L416.974 397.745L394.571 351L382.71 401.834L344.492 373.908Z" fill="#F7081D"/>
<path d="M92.711 407.294C95.1544 409.732 98.0556 411.666 101.249 412.986C104.442 414.305 107.864 414.984 111.321 414.984C114.777 414.984 118.199 414.305 121.393 412.986C124.586 411.666 127.487 409.732 129.93 407.294L135.001 402.237L140.072 407.294C145.008 412.217 151.702 414.982 158.682 414.982C165.662 414.982 172.356 412.217 177.292 407.294C182.227 402.372 185 395.696 185 388.735C185 381.774 182.227 375.098 177.292 370.176L172.221 365.119L138.532 331.521C136.581 329.575 133.422 329.575 131.471 331.521L97.782 365.119L92.711 370.176C90.2664 372.613 88.3272 375.506 87.0041 378.69C85.681 381.875 85 385.288 85 388.735C85 392.182 85.681 395.595 87.0041 398.78C88.3272 401.964 90.2664 404.858 92.711 407.294Z" fill="#231F20"/>
<path d="M133.592 416.382L118.289 431.565C117.021 432.822 117.912 434.984 119.697 434.984H150.304C152.089 434.984 152.98 432.822 151.712 431.565L136.409 416.382C135.629 415.608 134.372 415.608 133.592 416.382Z" fill="#231F20"/>
<mask id="mask0_1023_4926" style="mask-type:alpha" maskUnits="userSpaceOnUse" x="85" y="329" width="50" height="106">
<rect x="85" y="329.955" width="50" height="105.028" fill="#D9D9D9"/>
</mask>
<g mask="url(#mask0_1023_4926)">
<path d="M133.592 416.382L118.289 431.565C117.021 432.822 117.912 434.984 119.697 434.984H150.304C152.089 434.984 152.98 432.822 151.712 431.565L136.409 416.382C135.629 415.608 134.372 415.608 133.592 416.382Z" fill="#393335"/>
<path d="M92.711 407.294C95.1544 409.732 98.0556 411.666 101.249 412.986C104.442 414.305 107.864 414.984 111.321 414.984C114.777 414.984 118.199 414.305 121.393 412.986C124.586 411.666 127.487 409.732 129.93 407.294L135.001 402.237L140.072 407.294C145.008 412.217 151.702 414.982 158.682 414.982C165.662 414.982 172.356 412.217 177.292 407.294C182.227 402.372 185 395.696 185 388.735C185 381.774 182.227 375.098 177.292 370.176L172.221 365.119L138.532 331.521C136.581 329.575 133.422 329.575 131.471 331.521L97.782 365.119L92.711 370.176C90.2664 372.613 88.3272 375.506 87.0041 378.69C85.681 381.875 85 385.288 85 388.735C85 392.182 85.681 395.595 87.0041 398.78C88.3272 401.964 90.2664 404.858 92.711 407.294Z" fill="#393335"/>
</g>
</svg>
